X: 7
T: Ay ondas que eu vin 
F:https://en.wikipedia.org/wiki/Martin_Codax
F:https://es.wikisource.org/wiki/Archivo:Martim_Codax_Cantigas_de_Amigo.jpg
Z:Ali Corbin <ali.corbin:gmail.com>
N: 
M: 4/4
L: 1/4
Q: 1/4=100
K: F Ionian
V:1
%Staff 1
%%MIDI program 74
%
  E2 F2| G   A3|(B/A/G/F/) (F/G/F/E/)|(FEF) (G/A/|BAG A/G/)|
w:Ay on-das que  eu***      vin***     ve-** er**** * * *       
 (F/E/D/E/) F2| G A3|(B/A/G/F/) (F/G/F/E/)|(FEF) (G/A/|BAG A/G/)|
w:se***     me sa-be- re-***     des***     di-** zer******    
 (F/E/D/E/) (GF)|(FEF)  A|(B/A/G) (B/A/G)|(F/E/D/E/) (F/E/D/C/)|(C3D/E/)|F4||
w:por***    que* tar-**da  meu**   a-**    mi-***     go***      sen** min.
%
W:Ay ondas que eu vin veer		% Ay waves, that I came to.see
W:se me saberedes dizer 		% to.me would you.be.knowing.how to.say
W:por que tarda meu amigo sen min.	% why delays my friend from me?
W:
W:Ay ondas eu u mirar 			% Ay waves, I where to.watch 
W:se me saberedes contar 		% to.me would you.be.knowing.how to.recount 
W:por que tarda meu amigo sen min.	% why delays my friend from me?

